X:269
T: There'll Never Be Peace 'till Jamie Comes
N: O'Farrell's Pocket Companion v.3 (Sky ed. p.124)
N: "Scotch"
M: 3/4
L: 1/8
R: waltz
Q: 180
K: Am
A>B| c3B A2| B3A G2| EF G2 G>A| G4 AB| c2 dcBA| B2 e3 A/G/|
E2 A2 A>B| A4 A>B| cBcdef| g3f e2| d2B2g2| G4 AB| c2 dcBA|
B2 He3 A/G/| E2A2AB| A4 :|ab| c'3ba2| b3a g2| {d}e2 g2 ga|
g4 ab|c'3ba2| b3a g2| e2 a2 ab| a4 AB| cBcdef| g3fe2|
d2B2g2| G4 AB| c2 {e/}dcBA| B2 He2 AG| E2A2AB| A4 ||
